src/img/HomePage/Chopsticks/chopstickLeft.svg

<svg xmlns="http://www.w3.org/2000/svg" width="566" height="692" fill="none"><path fill-rule="evenodd" clip-rule="evenodd" d="M564.365 685.805c-3.214 5.816-12.155 7.099-17.483 2.509-2.586-2.228-20.025-23.149-49.243-59.079a11012.83 11012.83 0 0 0-20.696-25.33 22683.346 22683.346 0 0 1-23.107-28.251 12361.975 12361.975 0 0 0-19.133-23.379 99521.87 99521.87 0 0 1-33.745-41.2s-13.347-16.052-29.15-36.017c-12.872-15.658-28.322-34.505-34.332-41.881-55.459-68.048-86.091-104.739-86.091-104.739s-22.392-28.141-82.057-101.086a82766.862 82766.862 0 0 1-35.027-42.866c-11.597-14.2-32.021-39.189-45.388-55.531C-3.254 16.28 1.141 21.859.611 16.877c-.646-6.08.39-8.329 5.818-12.641C11.515.196 16.485-.822 21.02 1.245c1.847.842 14.853 16.083 34.59 40.53 33.95 42.055 33.207 41.137 73.386 90.863a328995.848 328995.848 0 0 1 124.367 154.08c20.548 25.491 56.856 70.489 69.784 86.487 7.707 9.538 24.705 30.57 37.773 46.738 13.068 16.169 27.054 33.516 31.082 38.55 0 0 79.28 97.819 86.598 107.118 3.977 5.055 56.626 70.362 75.623 93.805 7.521 10.341 7.931 11.356 10.17 15.354 2.239 3.997 1.166 8.876-.027 11.035Zm-12.461 1.764c4.324 1.139 5.717.641 8.768-3.138 4.171-5.166 2.906-8.052-11.15-25.411a62076.597 62076.597 0 0 1-49.071-60.79 92702.708 92702.708 0 0 0-59.436-73.626 50583.142 50583.142 0 0 1-60.541-74.993 47835.821 47835.821 0 0 0-24.378-30.239 31457.948 31457.948 0 0 1-27.429-34.048 8613.777 8613.777 0 0 0-21.444-26.553c-5.422-6.676-38-47.029-72.395-89.672-34.394-42.643-65.917-81.699-70.05-86.793-4.134-5.093-16.982-21-28.549-35.349-11.569-14.348-21.296-26.061-21.615-26.027-.321.034-5.086 1.994-10.59 4.356-6.941 2.978-9.742 4.655-9.139 5.471.88 1.193 40.171 49.365 65.723 80.581a45411.868 45411.868 0 0 1 63.035 77.223c5.338 6.562 16.891 20.697 25.674 31.411 17.981 21.935 64.644 79.044 80.615 98.659 5.79 7.112 14.915 18.292 20.277 24.846a90089.622 90089.622 0 0 1 77.333 94.708c6.973 8.562 19.243 23.57 27.267 33.353 8.024 9.782 24.443 29.849 36.486 44.595 55.582 68.052 57.832 70.704 60.609 71.436Z" fill="#201B19"/><path d="M560.672 684.431c-3.051 3.779-4.444 4.277-8.768 3.138-2.777-.732-5.027-3.384-60.609-71.436a33518.522 33518.522 0 0 0-36.486-44.595 15122.204 15122.204 0 0 1-27.267-33.353 90089.622 90089.622 0 0 0-77.333-94.708 16152.563 16152.563 0 0 1-20.277-24.846c-15.971-19.615-62.634-76.724-80.615-98.659a13665.306 13665.306 0 0 1-25.674-31.411 45411.868 45411.868 0 0 0-63.035-77.223c-25.552-31.216-64.843-79.388-65.723-80.581-.603-.816 2.198-2.493 9.139-5.471 5.504-2.362 10.269-4.322 10.59-4.356.319-.034 10.046 11.679 21.615 26.027a20040.755 20040.755 0 0 0 28.549 35.349c4.133 5.094 35.656 44.15 70.05 86.793 34.395 42.643 66.973 82.996 72.395 89.672a8613.777 8613.777 0 0 1 21.444 26.553c6.372 7.926 18.715 23.247 27.429 34.048a47835.821 47835.821 0 0 1 24.378 30.239c14.037 17.436 36.693 45.5 60.541 74.993a92702.708 92702.708 0 0 1 59.436 73.626 62076.597 62076.597 0 0 0 49.071 60.79c14.056 17.359 15.321 20.245 11.15 25.411Z" fill="#FAF5E5"/></svg>

<?xml version="1.0" encoding="UTF-8"?> <svg xmlns="http://www.w3.org/2000/svg" width="566" height="692" viewBox="0 0 566 692" fill="none"> <path fill-rule="evenodd" clip-rule="evenodd" d="M564.365 685.805C561.151 691.621 552.21 692.904 546.882 688.314C544.296 686.086 526.857 665.165 497.639 629.235C493.28 623.875 483.967 612.476 476.943 603.905C469.92 595.333 459.521 582.621 453.836 575.654C448.15 568.687 439.541 558.167 434.703 552.275C429.865 546.383 400.958 511.075 400.958 511.075C400.958 511.075 387.611 495.023 371.808 475.058C358.936 459.4 343.486 440.553 337.476 433.177C282.017 365.129 251.385 328.438 251.385 328.438C251.385 328.438 228.993 300.297 169.328 227.352C161.659 217.976 145.896 198.686 134.301 184.486C122.704 170.286 102.28 145.297 88.9133 128.955C-3.25433 16.2799 1.14074 21.8588 0.611413 16.8772C-0.0346104 10.7972 1.00054 8.54831 6.42947 4.23591C11.5149 0.196139 16.4854 -0.822223 21.0185 1.24472C22.8658 2.08715 35.8721 17.3277 55.6084 41.7755C89.5581 83.8303 88.816 82.9117 128.995 132.638C153.656 163.159 233.08 261.559 253.362 286.718C273.91 312.209 310.218 357.207 323.146 373.205C330.853 382.743 347.851 403.775 360.919 419.943C373.987 436.112 387.973 453.459 392.001 458.493C392.001 458.493 471.281 556.312 478.599 565.611C482.576 570.666 535.225 635.973 554.222 659.416C561.743 669.757 562.153 670.772 564.392 674.77C566.631 678.767 565.558 683.646 564.365 685.805ZM551.904 687.569C556.228 688.708 557.621 688.21 560.672 684.431C564.843 679.265 563.578 676.379 549.522 659.02C542.864 650.796 520.781 623.441 500.451 598.23C480.12 573.02 453.374 539.888 441.015 524.604C417.167 495.111 394.511 467.047 380.474 449.611C375.78 443.78 364.81 430.173 356.096 419.372C347.382 408.571 335.039 393.25 328.667 385.324C322.295 377.398 312.645 365.449 307.223 358.771C301.801 352.095 269.223 311.742 234.828 269.099C200.434 226.456 168.911 187.4 164.778 182.306C160.644 177.213 147.796 161.306 136.229 146.957C124.66 132.609 114.933 120.896 114.614 120.93C114.293 120.964 109.528 122.924 104.024 125.286C97.0827 128.264 94.2819 129.941 94.885 130.757C95.7652 131.95 135.056 180.122 160.608 211.338C177.158 231.556 210.004 271.794 223.643 288.561C228.981 295.123 240.534 309.258 249.317 319.972C267.298 341.907 313.961 399.016 329.932 418.631C335.722 425.743 344.847 436.923 350.209 443.477C366.937 463.92 414.265 521.881 427.542 538.185C434.515 546.747 446.785 561.755 454.809 571.538C462.833 581.32 479.252 601.387 491.295 616.133C546.877 684.185 549.127 686.837 551.904 687.569Z" fill="#201B19"></path> <path d="M560.672 684.431C557.621 688.21 556.228 688.708 551.904 687.569C549.127 686.837 546.877 684.185 491.295 616.133C479.252 601.387 462.833 581.32 454.809 571.538C446.785 561.755 434.515 546.747 427.542 538.185C414.265 521.881 366.937 463.92 350.209 443.477C344.847 436.923 335.722 425.743 329.932 418.631C313.961 399.016 267.298 341.907 249.317 319.972C240.534 309.258 228.981 295.123 223.643 288.561C210.004 271.794 177.158 231.556 160.608 211.338C135.056 180.122 95.7652 131.95 94.885 130.757C94.2819 129.941 97.0827 128.264 104.024 125.286C109.528 122.924 114.293 120.964 114.614 120.93C114.933 120.896 124.66 132.609 136.229 146.957C147.796 161.306 160.644 177.213 164.778 182.306C168.911 187.4 200.434 226.456 234.828 269.099C269.223 311.742 301.801 352.095 307.223 358.771C312.645 365.449 322.295 377.398 328.667 385.324C335.039 393.25 347.382 408.571 356.096 419.372C364.81 430.173 375.78 443.78 380.474 449.611C394.511 467.047 417.167 495.111 441.015 524.604C453.374 539.888 480.12 573.02 500.451 598.23C520.781 623.441 542.864 650.796 549.522 659.02C563.578 676.379 564.843 679.265 560.672 684.431Z" fill="#FAF5E5"></path> </svg>
